images_sukapura_svg/cmd/32/choosemacro.svg

<svg viewBox="0 0 32 32" xmlns="http://www.w3.org/2000/svg" xmlns:xlink="http://www.w3.org/1999/xlink"><linearGradient id="a" gradientUnits="userSpaceOnUse" x1="23" x2="23" y1="27" y2="4"><stop offset="0" stop-color="#f6f6f6"/><stop offset="1" stop-color="#fff"/></linearGradient><path d="m10.15625 3.5c-1.7312189 0-3.6171875.9530874-3.6171875 3.125v3.125 5.091797c-.018245-.0038-.036474-.0077-.054687-.01172l.0156245 7.669923c-1.725908 0-3 1.149093-3 2.875s1.399094 3.125 3.125 3.125h1.5625 1.5625 3.125 3.125 2.1875 1.15625c1.731219 0 3.550993-.954096 3.617188-3.125v-3.125-5.091797c.01825.0038.03647.0077.05469.01172l-.015628-7.669923c1.725908 0 3-1.1490933 3-2.875 0-1.7259065-1.400927-3.2045535-3.125-3.125h-1.5625-1.5625-6.398438-2.039062z" fill="url(#a)"/><path d="m10.15625 3c-.9574002 0-1.9591053.2555392-2.7558594.8457031-.7967541.590164-1.3613281 1.5484618-1.3613281 2.7792969v3.125 4.966797c-.01825-.0051-.03648-.01034-.054687-.01563l.0156245 7.39063c-1.695587.226513-3 1.491233-3 3.283203 0 1.996232 1.6287695 3.625 3.625 3.625h1.5625 1.5625 3.125 4.236328 1.576172 1.15625c.9574 0 1.959105-.255539 2.755859-.845703s1.325683-1.548978 1.361329-2.779297v-3.125-4.966797c.01825.0051.03648.01034.05469.01563l-.015628-7.3906299c1.695587-.2265133 5-1.4912332 5-3.2832031 0-1.125-.695861-3.625-5-3.625h-2.1875-1.5625-7.361328-1.576172zm0 1h1.15625 2.421875 6.515625 1.5625 2.1875c2.125 0 4 1.1694179 4 2.625 0 1.472323-3.030322 2.3496094-4.539062 2.3496094-.27608.0001514-.499849.2239204-.5.5v12.7753906 3.125c0 .941077-.377413 1.54528-.957032 1.974609-.579619.42933-1.386337.650391-2.160156.650391h-1.15625-2.421875-3.390625-3.125-1.5625-1.5625c-1.4555815 0-2.625-1.169418-2.625-2.625 0-1.472323 1.0303222-2.349609 2.5390625-2.349609.2760796-.000151.4998486-.22392.5-.5v-12.775391-3.125c0-.9410775.3774121-1.5452796.9570313-1.9746094.579619-.4293298 1.3863375-.6503906 2.1601562-.6503906z" fill="#98989d"/><circle cx="-24.838984" cy="20.313559" fill="#f00" r="0"/><path d="m3 22v3.375.125h.013672c.0678501 1.937381 1.6579445 3.5 3.611328 3.5h12.875.34375c.05195 0 .104156-.0079.15625-.0098.333444-.01211.669067-.05514 1-.130859v-.910156-.002-.113282c-.07777.02294-.158725.03526-.238281.05273-.870422-.270586-1.524534-.993553-1.707031-1.886633h-.054688v-.5-2.5-1h-11.9609375-1.0390625zm1 1h.0292969 1.9707031.5.1972656 11.3027344v2.5.5h.05469c.0128.05977.02778.119058.04492.177734.0013.0052.0026.01042.0039.01563.01427.04667.0299.09291.04687.138672.01166.03346.02404.06667.03711.09961.0088.02161.01793.0431.02734.06445.0088.02096.01795.04179.02734.0625.0026.0052.0052.01043.0078.01563.01437.03025.02935.0602.04492.08984.0077.0144.01549.02872.02344.04297.0108.01968.02187.03921.0332.05859.0019.0033.0039.0065.0059.0098.02126.0357.0434.07087.06641.105468.02383.03579.04858.07096.07422.105469.02027.02777.04111.05512.0625.08203.03385.04148.06902.08187.105469.121094.0223.02454.0451.04863.06836.07227.0032.0026.0065.0052.0098.0078.0317.03213.06426.06339.09766.09375.0039.0033.0078.0065.01172.0098.01864.01656.03752.03283.05664.04883.04001.03317.08105.06509.123047.0957.02822.02078.05687.04097.08594.06055.04341.02872.0877.05608.132812.08203.0213.01269.04279.02506.06445.03711l.002.002c.05559.02947.112269.05683.169922.08203.0162.0073.03248.0145.04883.02148.002.0013.0039.0026.0059.0039.06095.02457.122849.04672.185547.06641.01492.0054.0299.01056.04492.01563.02722.0076.05457.01479.08203.02148.0401.01142.08047.02184.121093.03125.0078.002.01562.0039.02344.0059.05439.01028.109109.01875.164062.02539-.05481.0039-.109297.01352-.164062.01563v.011573h-.15639-13.21875-.125-.5v-.05273c-.9795521-.201574-1.7447262-.967516-1.9453125-1.94727h-.0546875v-.5-.125-2.349609z" fill="#c93400"/><path d="m4 23v2.5.5h.054687c.2005868.979754.9657609 1.745696 1.945313 1.947266v.052734h.5 13.5v-.05273c-.979552-.201574-1.744726-.967516-1.945312-1.94727h-.054688v-.5-2.5h-11.5-.5z" fill="#ff9500"/><g transform="matrix(-1 0 0 -1 32 32)"><path d="m26 3.0625v.9375.0527344a2.5 2.5 0 0 1 1.945312 1.9472656h.054688v.5.125 2.3496094.0253906h-.029297-1.970703v1h3v-3.375-.125h-.013672c-.060413-1.7250369-1.330346-3.1452114-2.986328-3.4375z" fill="#c93400" transform="matrix(-1 0 0 -1 32 32)"/><path d="m26 4.0527344v4.9472656h2v-2.5-.5h-.054688a2.5 2.5 0 0 0 -1.945312-1.9472656z" fill="#ff9500" transform="matrix(-1 0 0 -1 32 32)"/><path d="m6 28.9375v-.9375-.052734a2.5 2.5 0 0 0 1.945312-1.947266h.054688v-.5-.125-2.349609-.025391h-.029297-1.970703v-1h3v3.375.125h-.013672c-.060413 1.725037-1.330346 3.145211-2.986328 3.4375z" fill="#c93400"/><path d="m6 27.947266v-4.947266h2v2.5.5h-.054688a2.5 2.5 0 0 1 -1.945312 1.947266z" fill="#ff9500"/></g></svg>

<?xml version="1.0" encoding="UTF-8" standalone="no"?>
<svg
   xmlns:dc="http://purl.org/dc/elements/1.1/"
   xmlns:cc="http://creativecommons.org/ns#"
   xmlns:rdf="http://www.w3.org/1999/02/22-rdf-syntax-ns#"
   xmlns:svg="http://www.w3.org/2000/svg"
   xmlns="http://www.w3.org/2000/svg"
   xmlns:xlink="http://www.w3.org/1999/xlink"
   xmlns:sodipodi="http://sodipodi.sourceforge.net/DTD/sodipodi-0.dtd"
   xmlns:inkscape="http://www.inkscape.org/namespaces/inkscape"
   viewBox="0 0 32 32"
   version="1.1"
   id="svg12"
   sodipodi:docname="choosemacro.svg"
   inkscape:export-filename="/home/rizmut/Dokumen/Rizmut/Github/libreoffice-style-sukapura/images_sukapura/cmd/32/choosemacro.png"
   inkscape:export-xdpi="96"
   inkscape:export-ydpi="96"
   inkscape:version="0.92.3 (unknown)">
  <metadata
     id="metadata18">
    <rdf:RDF>
      <cc:Work
         rdf:about="">
        <dc:format>image/svg+xml</dc:format>
        <dc:type
           rdf:resource="http://purl.org/dc/dcmitype/StillImage" />
        <dc:title></dc:title>
      </cc:Work>
    </rdf:RDF>
  </metadata>
  <defs
     id="defs16">
    <linearGradient
       inkscape:collect="always"
       id="linearGradient895">
      <stop
         style="stop-color:#f6f6f6;stop-opacity:1;"
         offset="0"
         id="stop891" />
      <stop
         style="stop-color:#ffffff;stop-opacity:1"
         offset="1"
         id="stop893" />
    </linearGradient>
    <linearGradient
       inkscape:collect="always"
       xlink:href="#linearGradient895"
       id="linearGradient920"
       x1="23"
       y1="27"
       x2="23"
       y2="4"
       gradientUnits="userSpaceOnUse" />
  </defs>
  <sodipodi:namedview
     pagecolor="#ffffff"
     bordercolor="#666666"
     borderopacity="1"
     objecttolerance="10"
     gridtolerance="10"
     guidetolerance="10"
     inkscape:pageopacity="0"
     inkscape:pageshadow="2"
     inkscape:window-width="1366"
     inkscape:window-height="706"
     id="namedview14"
     showgrid="true"
     inkscape:snap-smooth-nodes="true"
     inkscape:zoom="7.375"
     inkscape:cx="2.8518585"
     inkscape:cy="12.053212"
     inkscape:window-x="0"
     inkscape:window-y="0"
     inkscape:window-maximized="1"
     inkscape:current-layer="svg12">
    <inkscape:grid
       type="xygrid"
       id="grid862"
       spacingx="0.5"
       spacingy="0.5"
       empspacing="2" />
  </sodipodi:namedview>
  <g
     id="g991">
    <path
       sodipodi:nodetypes="ssccccsscccccssccccssccccs"
       inkscape:connector-curvature="0"
       id="path2"
       d="M 10.15625,3.5 C 8.4250311,3.5 6.5390625,4.4530874 6.5390625,6.625 v 3.125 5.091797 c -0.018245,-0.0038 -0.036474,-0.0077 -0.054687,-0.01172 L 6.5,22.5 c -1.725908,0 -3,1.149093 -3,2.875 0,1.725907 1.399094,3.125 3.125,3.125 H 8.1875 9.75 12.875 16 h 2.1875 1.15625 c 1.731219,0 3.550993,-0.954096 3.617188,-3.125 V 22.25 17.158203 c 0.01825,0.0038 0.03647,0.0077 0.05469,0.01172 L 23,9.5 c 1.725908,0 3,-1.1490933 3,-2.875 C 26,4.8990935 24.599073,3.4204465 22.875,3.5 H 21.3125 19.75 13.351562 11.3125 Z"
       style="fill:url(#linearGradient920);fill-opacity:1;stroke:none;stroke-opacity:1" />
    <path
       sodipodi:nodetypes="sssccccsscccccsssccccssccccssccccsscccscscccccsscccsss"
       inkscape:connector-curvature="0"
       style="fill:#98989d;fill-opacity:1;stroke:none"
       id="path4"
       d="M 10.15625,3 C 9.1988498,3 8.1971447,3.2555392 7.4003906,3.8457031 6.6036365,4.4358671 6.0390625,5.3941649 6.0390625,6.625 v 3.125 4.966797 c -0.01825,-0.0051 -0.03648,-0.01034 -0.054687,-0.01563 L 6,22.091797 C 4.304413,22.31831 3,23.58303 3,25.375 3,27.371232 4.6287695,29 6.625,29 h 1.5625 1.5625 3.125 4.236328 1.576172 1.15625 c 0.9574,0 1.959105,-0.255539 2.755859,-0.845703 0.796754,-0.590164 1.325683,-1.548978 1.361329,-2.779297 V 22.25 17.283203 c 0.01825,0.0051 0.03648,0.01034 0.05469,0.01563 L 24,9.9082031 C 25.695587,9.6816898 29,8.4169699 29,6.625 29,5.5 28.304139,3 24,3 H 21.8125 20.25 12.888672 11.3125 Z m 0,1 H 11.3125 13.734375 20.25 21.8125 24 c 2.125,0 4,1.1694179 4,2.625 0,1.472323 -3.030322,2.3496094 -4.539062,2.3496094 -0.27608,1.514e-4 -0.499849,0.2239204 -0.5,0.5 V 22.25 25.375 c 0,0.941077 -0.377413,1.54528 -0.957032,1.974609 C 21.424287,27.778939 20.617569,28 19.84375,28 H 18.6875 16.265625 12.875 9.75 8.1875 6.625 C 5.1694185,28 4,26.830582 4,25.375 c 0,-1.472323 1.0303222,-2.349609 2.5390625,-2.349609 0.2760796,-1.51e-4 0.4998486,-0.22392 0.5,-0.5 V 9.75 6.625 c 0,-0.9410775 0.3774121,-1.5452796 0.9570313,-1.9746094 C 8.5757128,4.2210608 9.3824313,4 10.15625,4 Z" />
    <circle
       r="0"
       cy="20.313559"
       cx="-24.838984"
       id="path967"
       style="opacity:1;fill:#ff0000;fill-opacity:1;stroke:none;stroke-width:1;stroke-linecap:round;stroke-linejoin:round;stroke-miterlimit:4;stroke-dasharray:none;stroke-opacity:1" />
    <path
       sodipodi:nodetypes="ccccscscccccccccccccccccccccccccccccccccccccccccccccccccccccccccccccccccccccc"
       inkscape:connector-curvature="0"
       id="path875"
       d="m 3,22 v 3.375 0.125 h 0.013672 C 3.0815221,27.437381 4.6716165,29 6.625,29 H 19.5 19.84375 c 0.05195,0 0.104156,-0.0079 0.15625,-0.0098 0.333444,-0.01211 0.669067,-0.05514 1,-0.130859 v -0.910156 -0.002 -0.113282 c -0.07777,0.02294 -0.158725,0.03526 -0.238281,0.05273 C 19.891297,27.616047 19.237185,26.89308 19.054688,26 H 19 V 25.5 23 22 H 7.0390625 6 Z m 1,1 H 4.0292969 6 6.5 6.6972656 18 v 2.5 0.5 h 0.05469 c 0.0128,0.05977 0.02778,0.119058 0.04492,0.177734 0.0013,0.0052 0.0026,0.01042 0.0039,0.01563 0.01427,0.04667 0.0299,0.09291 0.04687,0.138672 0.01166,0.03346 0.02404,0.06667 0.03711,0.09961 0.0088,0.02161 0.01793,0.0431 0.02734,0.06445 0.0088,0.02096 0.01795,0.04179 0.02734,0.0625 0.0026,0.0052 0.0052,0.01043 0.0078,0.01563 0.01437,0.03025 0.02935,0.0602 0.04492,0.08984 0.0077,0.0144 0.01549,0.02872 0.02344,0.04297 0.0108,0.01968 0.02187,0.03921 0.0332,0.05859 0.0019,0.0033 0.0039,0.0065 0.0059,0.0098 0.02126,0.0357 0.0434,0.07087 0.06641,0.105468 0.02383,0.03579 0.04858,0.07096 0.07422,0.105469 0.02027,0.02777 0.04111,0.05512 0.0625,0.08203 0.03385,0.04148 0.06902,0.08187 0.105469,0.121094 0.0223,0.02454 0.0451,0.04863 0.06836,0.07227 0.0032,0.0026 0.0065,0.0052 0.0098,0.0078 0.0317,0.03213 0.06426,0.06339 0.09766,0.09375 0.0039,0.0033 0.0078,0.0065 0.01172,0.0098 0.01864,0.01656 0.03752,0.03283 0.05664,0.04883 0.04001,0.03317 0.08105,0.06509 0.123047,0.0957 0.02822,0.02078 0.05687,0.04097 0.08594,0.06055 0.04341,0.02872 0.0877,0.05608 0.132812,0.08203 0.0213,0.01269 0.04279,0.02506 0.06445,0.03711 l 0.002,0.002 c 0.05559,0.02947 0.112269,0.05683 0.169922,0.08203 0.0162,0.0073 0.03248,0.0145 0.04883,0.02148 0.002,0.0013 0.0039,0.0026 0.0059,0.0039 0.06095,0.02457 0.122849,0.04672 0.185547,0.06641 0.01492,0.0054 0.0299,0.01056 0.04492,0.01563 0.02722,0.0076 0.05457,0.01479 0.08203,0.02148 0.0401,0.01142 0.08047,0.02184 0.121093,0.03125 0.0078,0.002 0.01562,0.0039 0.02344,0.0059 0.05439,0.01028 0.109109,0.01875 0.164062,0.02539 -0.05481,0.0039 -0.109297,0.01352 -0.164062,0.01563 V 28 H 19.84375 6.625 6.5 6 v -0.05273 C 5.0204479,27.745696 4.2552738,26.979754 4.0546875,26 H 4 v -0.5 -0.125 -2.349609 z"
       style="opacity:1;fill:#c93400;fill-opacity:1;stroke:none;stroke-width:1;stroke-linecap:round;stroke-linejoin:round;stroke-miterlimit:4;stroke-dasharray:none;stroke-opacity:1" />
    <path
       sodipodi:nodetypes="cccccccccccccccc"
       inkscape:connector-curvature="0"
       id="path870"
       d="m 4,23 v 2.5 0.5 h 0.054687 C 4.2552738,26.979754 5.0204479,27.745696 6,27.947266 V 28 H 6.5 20 v -0.05273 C 19.020448,27.745696 18.255274,26.979754 18.054688,26 H 18 V 25.5 23 H 6.5 6 Z"
       style="opacity:1;fill:#ff9500;fill-opacity:1;stroke:none;stroke-width:1;stroke-linecap:round;stroke-linejoin:round;stroke-miterlimit:4;stroke-dasharray:none;stroke-opacity:1" />
    <g
       transform="rotate(-180,16,16)"
       id="g928">
      <path
         id="path922"
         transform="rotate(180,16,16)"
         d="M 26 3.0625 L 26 4 L 26 4.0527344 A 2.5 2.5 0 0 1 27.945312 6 L 28 6 L 28 6.5 L 28 6.625 L 28 8.9746094 L 28 9 L 27.970703 9 L 26 9 L 26 10 L 29 10 L 29 6.625 L 29 6.5 L 28.986328 6.5 C 28.925915 4.7749631 27.655982 3.3547886 26 3.0625 z "
         style="opacity:1;fill:#c93400;fill-opacity:1;stroke:none;stroke-width:1;stroke-linecap:round;stroke-linejoin:round;stroke-miterlimit:4;stroke-dasharray:none;stroke-opacity:1" />
      <path
         id="path924"
         transform="rotate(180,16,16)"
         d="M 26 4.0527344 L 26 9 L 28 9 L 28 6.5 L 28 6 L 27.945312 6 A 2.5 2.5 0 0 0 26 4.0527344 z "
         style="opacity:1;fill:#ff9500;fill-opacity:1;stroke:none;stroke-width:1;stroke-linecap:round;stroke-linejoin:round;stroke-miterlimit:4;stroke-dasharray:none;stroke-opacity:1" />
      <path
         inkscape:connector-curvature="0"
         style="opacity:1;fill:#c93400;fill-opacity:1;stroke:none;stroke-width:1;stroke-linecap:round;stroke-linejoin:round;stroke-miterlimit:4;stroke-dasharray:none;stroke-opacity:1"
         d="M 6,28.9375 V 28 27.947266 A 2.5,2.5 0 0 0 7.945312,26 H 8 V 25.5 25.375 23.025391 23 H 7.970703 6 V 22 H 9 V 25.375 25.5 H 8.986328 C 8.925915,27.225037 7.655982,28.645211 6,28.9375 Z"
         id="path936" />
      <path
         inkscape:connector-curvature="0"
         style="opacity:1;fill:#ff9500;fill-opacity:1;stroke:none;stroke-width:1;stroke-linecap:round;stroke-linejoin:round;stroke-miterlimit:4;stroke-dasharray:none;stroke-opacity:1"
         d="M 6,27.947266 V 23 H 8 V 25.5 26 H 7.945312 A 2.5,2.5 0 0 1 6,27.947266 Z"
         id="path938" />
    </g>
  </g>
</svg>
